material/.icons/material/message-processing-outline.svg

<?xml version="1.0" encoding="UTF-8"?><!DOCTYPE svg PUBLIC "-//W3C//DTD SVG 1.1//EN" "http://www.w3.org/Graphics/SVG/1.1/DTD/svg11.dtd"><svg xmlns="http://www.w3.org/2000/svg" xmlns:xlink="http://www.w3.org/1999/xlink" version="1.1" id="mdi-message-processing-outline" width="24" height="24" viewBox="0 0 24 24"><path d="M20 2H4C2.9 2 2 2.9 2 4V22L6 18H20C21.11 18 22 17.11 22 16V4C22 2.9 21.11 2 20 2M20 16H6L4 18V4H20M17 11H15V9H17M13 11H11V9H13M9 11H7V9H9" /></svg>

<svg xmlns="http://www.w3.org/2000/svg" viewBox="0 0 24 24"><path d="M20 2H4c-1.1 0-2 .9-2 2v18l4-4h14c1.11 0 2-.89 2-2V4a2 2 0 00-2-2m0 14H6l-2 2V4h16m-3 7h-2V9h2m-4 2h-2V9h2m-4 2H7V9h2"/></svg>
